src/icons/ff-sketch.svg

<svg version="1.1" id="Layer_1" xmlns="http://www.w3.org/2000/svg" x="0" y="0" viewBox="0 0 101 103" xml:space="preserve"><style>.st0{fill:#fff}.st1{fill:none;stroke:#000;stroke-width:1.75;stroke-linecap:round;stroke-linejoin:round}</style><path class="st0" d="M16 32.2L2.8 60.4v15.9L38 94.8l44.1-6.2 12.3-28.2v-15L62.7 26 16 32.2z"/><path class="st1" d="M1 73.6C12.5 80 30 90.1 41.6 96.5M80.3 90.4c4.4-9.7 7.1-15.9 14.1-31.7M31 94.8c19.4-2.6 29.1-3.5 53.8-7.9M1.9 57.7c11.5 6.4 29 16.5 40.6 22.9M59.2 26c11.5 6.4 29 16.5 40.6 22.9"/><path class="st1" d="M2.8 62.1c4.4-9.7 7.1-15.9 14.1-31.7m64.3 44.1c4.4-9.7 7.1-15.9 14.1-31.7"/><path class="st1" d="M12.5 33.9c19.4-2.6 29.1-3.5 53.8-7.9M31.9 78.9C51.3 76.3 61 75.4 85.7 71"/><path class="st1" d="M4.4 57.8c0 4 .1 14.5.1 18.5m32.5.9c0 4 .1 14.5.1 18.5M82 71c0 4 .1 14.5.1 18.5m11.5-45.9c0 4 .1 14.5.1 18.5M42.4 77.5L38 93.7m5.3-.9l4.2-15.3m1.1 14.4l4.2-15.3m5.5-.9L54.1 91m9.5-16.1l-4.2 15.3M69.8 74l-4.4 16.2m9.7-17.1l-4.4 16.2m9.6-17.1l-4.4 16.2M86.5 75.3V63.9m3.5 4.4l.2-13.3M16.9 66.6l-3.4 13.1m7.8-10.5l-3.5 13.5m8.8-10.9l-3.7 14.1M31 74.8l-3.7 13.8m8.1-11.5L31.7 91M12.5 63.9L8.7 78m-.6-15.9l-3.5 13"/><g><path class="st0" d="M71 53.2L51.2 4C39.6 29.4 27.9 53.2 27.9 53.2c18.8 7.1 35.2 3.4 43.1 0z"/><path class="st1" d="M27.8 50.2C33 59.2 59.7 60.3 72 52M27 53.9C31.6 44.1 47.5 10.4 52.9 1M50.3 1c3.3 6.4 17.6 46 20.6 52.5M53.1 28.4c-6.5 2.2-10.8 3.7-16.9 5.8M55.9 33.9l-23.1 7.8m16.9 0c-6.7 2.3-13.6 4.6-20 6.9"/></g></svg>

<?xml version="1.0" encoding="utf-8"?>
<!-- Generator: Adobe Illustrator 25.2.1, SVG Export Plug-In . SVG Version: 6.00 Build 0)  -->
<svg version="1.1" id="Layer_1" xmlns="http://www.w3.org/2000/svg" xmlns:xlink="http://www.w3.org/1999/xlink" x="0px" y="0px"
	 viewBox="0 0 101 103" style="enable-background:new 0 0 101 103;" xml:space="preserve">
<style type="text/css">
	.st0{fill:#FFFFFF;}
	.st1{fill:none;stroke:#000000;stroke-width:1.75;stroke-linecap:round;stroke-linejoin:round;}
</style>
<g>
	<path class="st0" d="M16,32.2L2.8,60.4v15.9L38,94.8l44.1-6.2l12.3-28.2v-15L62.7,26L16,32.2z"/>
	<path class="st1" d="M1,73.6C12.5,80,30,90.1,41.6,96.5"/>
	<path class="st1" d="M80.3,90.4c4.4-9.7,7.1-15.9,14.1-31.7"/>
	<path class="st1" d="M31,94.8c19.4-2.6,29.1-3.5,53.8-7.9"/>
	<path class="st1" d="M1.9,57.7c11.5,6.4,29,16.5,40.6,22.9"/>
	<path class="st1" d="M59.2,26c11.5,6.4,29,16.5,40.6,22.9"/>
	<path class="st1" d="M2.8,62.1c4.4-9.7,7.1-15.9,14.1-31.7 M81.2,74.5c4.4-9.7,7.1-15.9,14.1-31.7"/>
	<path class="st1" d="M12.5,33.9c19.4-2.6,29.1-3.5,53.8-7.9 M31.9,78.9c19.4-2.6,29.1-3.5,53.8-7.9"/>
	<path class="st1" d="M4.4,57.8c0,4,0.1,14.5,0.1,18.5 M37,77.2c0,4,0.1,14.5,0.1,18.5 M82,71c0,4,0.1,14.5,0.1,18.5 M93.6,43.6
		c0,4,0.1,14.5,0.1,18.5"/>
	<path class="st1" d="M42.4,77.5L38,93.7 M43.3,92.8l4.2-15.3 M48.6,91.9l4.2-15.3 M58.3,75.7l-4.2,15.3 M63.6,74.9l-4.2,15.3
		 M69.8,74l-4.4,16.2 M75.1,73.1l-4.4,16.2 M80.3,72.2l-4.4,16.2"/>
	<path class="st1" d="M86.5,75.3V63.9 M90,68.3L90.2,55"/>
	<path class="st1" d="M16.9,66.6l-3.4,13.1 M21.3,69.2l-3.5,13.5 M26.6,71.8l-3.7,14.1 M31,74.8l-3.7,13.8 M35.4,77.1L31.7,91
		 M12.5,63.9L8.7,78 M8.1,62.1l-3.5,13"/>
</g>
<g>
	<path class="st0" d="M71,53.2L51.2,4C39.6,29.4,27.9,53.2,27.9,53.2C46.7,60.3,63.1,56.6,71,53.2z"/>
	<path class="st1" d="M27.8,50.2C33,59.2,59.7,60.3,72,52"/>
	<path class="st1" d="M27,53.9C31.6,44.1,47.5,10.4,52.9,1"/>
	<path class="st1" d="M50.3,1c3.3,6.4,17.6,46,20.6,52.5"/>
	<path class="st1" d="M53.1,28.4c-6.5,2.2-10.8,3.7-16.9,5.8"/>
	<path class="st1" d="M55.9,33.9l-23.1,7.8 M49.7,41.7c-6.7,2.3-13.6,4.6-20,6.9"/>
</g>
</svg>
